symbols/web/qr_code/materialsymbolsoutlined/qr_code_wght600gradN25_24px.svg

<svg xmlns="http://www.w3.org/2000/svg" height="24" width="24"><path d="M2.475 11.05V2.475h8.6v8.575ZM5 8.525h3.525V5H5Zm-2.525 13v-8.6h8.6v8.6ZM5 19h3.525v-3.525H5Zm7.95-7.95V2.475h8.575v8.575Zm2.525-2.525H19V5h-3.525Zm3.9 13v-2.15h2.15v2.15Zm-6.425-6.45v-2.15h2.125v2.15Zm2.125 2.175v-2.175h2.15v2.175Zm-2.125 2.125V17.25h2.125v2.125Zm2.125 2.15v-2.15h2.15v2.15Zm2.15-2.15V17.25h2.15v2.125Zm0-4.3v-2.15h2.15v2.15Zm2.15 2.175v-2.175h2.15v2.175Z"/></svg>

<svg xmlns="http://www.w3.org/2000/svg" height="24" width="24"><path d="M2.475 11.05V2.475H11.075V11.05ZM5 8.525H8.525V5H5ZM2.475 21.525V12.925H11.075V21.525ZM5 19H8.525V15.475H5ZM12.95 11.05V2.475H21.525V11.05ZM15.475 8.525H19V5H15.475ZM19.375 21.525V19.375H21.525V21.525ZM12.95 15.075V12.925H15.075V15.075ZM15.075 17.25V15.075H17.225V17.25ZM12.95 19.375V17.25H15.075V19.375ZM15.075 21.525V19.375H17.225V21.525ZM17.225 19.375V17.25H19.375V19.375ZM17.225 15.075V12.925H19.375V15.075ZM19.375 17.25V15.075H21.525V17.25Z"/></svg>
